X: 1
T: the Gloucester Wassail
Z: 2007 John Chambers <jc:trillian.mit.edu>
M: 3/4
L: 1/8
K: D
A2 \
|  "D"d4    d2 |     d2 e2 f2 | "A7"g2 f2 e2 |  "D"f2 a2 a2 \
| "Em"g2 e2 e2 | "A7"e2 f2 g2 |  "D"fe de f2 | "A7"e4 g2 |
|  "D"fe de fg | "A7"a4    ag |  "D"f2 d2 f2 | "A7"e4 de \
|  "D"f4    ef |  "G"g4    f2 | "A7"e2 d2 c2 |  "D"d4 |]
